modules/hawcons-stroke/icons/icon-41-moonrise.svg

<?xml version="1.0" encoding="UTF-8" standalone="no"?>
<svg width="32px" height="32px" viewBox="0 0 32 32" version="1.1" xmlns="http://www.w3.org/2000/svg" xmlns:xlink="http://www.w3.org/1999/xlink" xmlns:sketch="http://www.bohemiancoding.com/sketch/ns">
    <!-- Generator: Sketch 3.0.3 (7891) - http://www.bohemiancoding.com/sketch -->
    <title>icon 41 moonrise</title>
    <desc>Created with Sketch.</desc>
    <defs></defs>
    <g id="Page-1" stroke="none" stroke-width="1" fill="none" fill-rule="evenodd" sketch:type="MSPage">
        <g id="icon-41-moonrise" sketch:type="MSArtboardGroup" fill="#929292">
            <path d="M19.565603,19.6824026 C20.4239876,18.9508433 21.0546642,17.9600253 21.3364888,16.8310925 C21.4242079,16.4797073 21.4781305,16.1149417 21.4946037,15.7404486 C21.0269611,15.9050627 20.5239372,15.9946037 20,15.9946037 C17.5147185,15.9946037 15.5,13.9798852 15.5,11.4946037 C15.5,10.9706664 15.589541,10.4676426 15.7541551,10 C15.379662,10.0164731 15.0148964,10.0703957 14.6635112,10.1581148 C12.2718077,10.7551751 10.5,12.9179753 10.5,15.4946037 C10.5,17.4134497 11.4826373,19.1027883 12.972156,20.0868635 L13.7594129,19.3980137 C12.4091706,18.6212912 11.5,17.1641216 11.5,15.4946037 C11.5,13.5332594 12.7547894,11.8649871 14.5053963,11.2487587 C14.5018113,11.3302589 14.5,11.4122197 14.5,11.4946037 C14.5,14.5321699 16.9624337,16.9946037 20,16.9946037 C20.0823839,16.9946037 20.1643448,16.9927923 20.2458449,16.9892073 C19.9626063,17.7938432 19.4571107,18.4937317 18.8030565,19.0151744 L19.565603,19.6824026 L19.565603,19.6824026 L19.565603,19.6824026 Z M7.5082041,22 C7.22753073,22 7,22.2319336 7,22.5 C7,22.7761424 7.22661515,23 7.5082041,23 L13.5833333,23 L14.75,22 L16.5,20.5 L18.25,22 L19.4166667,23 L25.4917959,23 C25.7724693,23 26,22.7680664 26,22.5 C26,22.2238576 25.7733849,22 25.4917959,22 L20,22 L16.5,19 L13,22 L7.5082041,22 L7.5082041,22 Z" id="moonrise" sketch:type="MSShapeGroup"></path>
        </g>
    </g>
</svg>

<svg width="32" height="32" viewBox="0 0 32 32" xmlns="http://www.w3.org/2000/svg"><path d="M19.566 19.682a5.5 5.5 0 0 0 1.929-3.942 4.5 4.5 0 0 1-5.74-5.74 5.502 5.502 0 0 0-2.782 10.087l.786-.689a4.502 4.502 0 0 1 .746-8.15 5.5 5.5 0 0 0 5.74 5.74 4.51 4.51 0 0 1-1.442 2.027l.763.667zM7.508 22a.51.51 0 0 0-.508.5c0 .276.227.5.508.5h6.075l1.167-1 1.75-1.5 1.75 1.5 1.167 1h6.075a.51.51 0 0 0 .508-.5c0-.276-.227-.5-.508-.5H20l-3.5-3-3.5 3H7.508z" fill="#929292" fill-rule="evenodd"/></svg>
